X:19
T:Bellonian’s Air,The. JClw.19
M:4/4
L:1/8
Q:1/4=100
S:J.Clews MS,Stoke-upon-Tern,Shrops.1832
N:Bellonian may refer to an invention of Bell Organ & Piano Co (Canada),
N:which was a self-playing attachment for reed organs using folded paper m
N:ic
N:invented by a Mr Warren. Presumably the effect was similar to a pianola.
N:The company was in business from 1864-1928, which would
N:date this part of the MS book later than 1832.
N:Interestingly, Bell also made melodeons.NeilB.
A:N. Shropshire
Z:Neil Brookes 2006
K:A
A2EG AA, zA|Bcde dz2e|Ee Ed Ec ze|\
E/d/c/d/ E/d/c/d/ Ec zE|!
E/F/G/A/ Bc dc zB|A/B/c/d/ ef gf z2|\
bd/c/ db dc/B/ cb|cB/A/ ce dB ed|!
c/e/e/e/ B/e/e/e/ c/e/e/e/ A/e/e/e/|\
d/f/f/f/ c/f/f/f/ d/f/f/f/ B/f/f/f/|\
A/a/a/a/ B/a/a/a/ c/a/a/a/ B/a/a/a/:|!
A/a/A/a/ B/a/B/a/ c/a/c/a/ B/a/B/a/|\
A/a/g/f/ e/d/c/B/ A/B/c/d/ eg|ag/f/gf/e/ e2z2|\
ag/f/ e/d/c/B/ A2z2|!
AG/F/ E/D/C/B,/ A,2a2|e/a/g/a/ e/a/g/a/ e/a/g/a/ e/a/g/a/|\
e/b/a/b/ e/b/a/b/ e/b/a/b/ e/b/a/b/|\
e/c’/b/c’/ e/c’/b/c’/ e/c’/b/c’/ e/c’/b/c’/|!
e/d’/c’/d’/ e/d’/c’/d’/ e/d’/c’/d’/ e/d’/c’/d’/|\
e’/e’/e’/e’/ e’/e’/e’/e’/ e’/e’/e’/e’/ e’/e’/e’/e’/|\
e/e’/e’/e’/ f/e’/e’/e’/ g/e’/e’/e’/ f/e’/e’/e’/|!
e/e’/e/e’/ f/e’/f/e’/ g/e’/g/e’/ f/e’/f/e’/|\
e’d’/c’/ d’e’ d’c’/b/ z2|ag/f/ ga gf/e/ zd|\
c/e/B/e/ c/e/B/e/ c/e/B/e/ c/e/A/e/|!
d/e/c/e/ B/e/A/e/ d/e/c/e/ B/e/A/e|\
d/c/B/c/ D/c/B/A/ GF/E/ zE|E/F/G/A/ Bcdc zB|\
A/B/c/d/ ef gf zb|!
e2d2cE Ad|c2B2A2 zE|E/F/G/A/ BcdB zB|\
A/B/c/d/ ef gf zb|e2d2 cE Ad|c2B2A4||

